;FLAVOR:Marlin
;TIME:1510
;Filament used: 1.40057m
;Layer height: 0.2
;Generated with Cura_SteamEngine 3.4.1
M82 ;absolute extrusion mode
G21 ; set units to millimeters
G90 ; use absolute positioning
M82 ; absolute extrusion mode
M104 S215 ; set extruder temp
M140 S60 ; set bed temp
M190 S60 ; wait for bed temp
M109 S215 ; wait for extruder temp
G28 W ; home all without mesh bed level
G80 ; mesh bed leveling
G92 E0.0 ; reset extruder distance position
G1 Y-3.0 F1000.0 ; go outside print area
G1 X60.0 E9.0 F1000.0 ; intro line
G1 X100.0 E21.5 F1000.0 ; intro line
G92 E0.0 ; reset extruder distance position
G92 E0
G1 F2100 E-0.8
;LAYER_COUNT:100
;LAYER:0
M107
G0 F3600 X106.38 Y89.224 Z0.15
;TYPE:SKIRT
G1 F2100 E0
G1 F1800 X106.785 Y88.787 E0.01486
G1 X106.902 Y88.67 E0.01899
G1 X107.488 Y88.14 E0.0387
G1 X108.124 Y87.673 E0.05838
G1 X108.804 Y87.272 E0.07807
G1 X109.522 Y86.942 E0.09779
G1 X110.269 Y86.687 E0.11748
G1 X111.038 Y86.508 E0.13717
G1 X111.822 Y86.408 E0.15689
G1 X112.417 Y86.385 E0.17174
G1 X137.583 Y86.385 E0.79951
G1 X138.372 Y86.425 E0.81922
G1 X139.152 Y86.544 E0.8389
G1 X139.917 Y86.742 E0.85861
G1 X140.657 Y87.016 E0.87829
G1 X141.366 Y87.364 E0.898
G1 X142.037 Y87.782 E0.91772
G1 X142.661 Y88.265 E0.9374
G1 X143.098 Y88.67 E0.95226
G1 X143.215 Y88.787 E0.95639
G1 X143.745 Y89.373 E0.9761
G1 X144.212 Y90.009 E0.99578
G1 X144.613 Y90.689 E1.01548
G1 X144.943 Y91.407 E1.03519
G1 X145.198 Y92.154 E1.05488
G1 X145.377 Y92.923 E1.07457
G1 X145.477 Y93.707 E1.09429
G1 X145.5 Y94.302 E1.10914
G1 X145.5 Y102.692 E1.31843
G1 X145.46 Y103.481 E1.33814
G1 X145.341 Y104.261 E1.35782
G1 X145.143 Y105.026 E1.37753
G1 X144.992 Y105.433 E1.38836
G1 X145.198 Y106.036 E1.40426
G1 X145.377 Y106.805 E1.42395
G1 X145.477 Y107.589 E1.44367
G1 X145.5 Y108.184 E1.45852
G1 X145.5 Y116.841 E1.67447
G1 X145.46 Y117.63 E1.69418
G1 X145.341 Y118.41 E1.71386
G1 X145.143 Y119.175 E1.73357
G1 X144.869 Y119.915 E1.75326
G1 X144.521 Y120.624 E1.77296
G1 X144.103 Y121.295 E1.79268
G1 X143.62 Y121.919 E1.81236
G1 X143.215 Y122.356 E1.82722
G1 X143.098 Y122.473 E1.83135
G1 X142.512 Y123.003 E1.85106
G1 X141.876 Y123.47 E1.87074
G1 X141.196 Y123.871 E1.89044
G1 X140.478 Y124.201 E1.91015
G1 X139.731 Y124.456 E1.92984
G1 X138.962 Y124.635 E1.94953
G1 X138.178 Y124.735 E1.96925
G1 X137.582 Y124.758 E1.98413
G1 X127.656 Y124.757 E2.23173
G1 X126.868 Y124.717 E2.25141
G1 X126.73 Y124.696 E2.2549
G1 X126.431 Y124.734 E2.26242
G1 X125.841 Y124.757 E2.27714
G1 X124.169 Y124.758 E2.31885
G1 X123.38 Y124.718 E2.33856
G1 X123.236 Y124.696 E2.34219
G1 X122.938 Y124.734 E2.34969
G1 X122.344 Y124.757 E2.36452
G1 X112.418 Y124.758 E2.61212
G1 X111.629 Y124.718 E2.63183
G1 X110.849 Y124.599 E2.65151
G1 X110.084 Y124.401 E2.67122
G1 X109.343 Y124.127 E2.69093
G1 X108.634 Y123.779 E2.71063
G1 X107.964 Y123.362 E2.73032
G1 X107.339 Y122.879 E2.75002
G1 X106.902 Y122.473 E2.7649
G1 X106.785 Y122.356 E2.76903
G1 X106.255 Y121.77 E2.78874
G1 X105.788 Y121.134 E2.80842
G1 X105.387 Y120.454 E2.82811
G1 X105.057 Y119.736 E2.84782
G1 X104.802 Y118.989 E2.86751
G1 X104.623 Y118.22 E2.88721
G1 X104.523 Y117.436 E2.90692
G1 X104.5 Y116.841 E2.92178
G1 X104.5 Y108.185 E3.1377
G1 X104.54 Y107.396 E3.15741
G1 X104.659 Y106.616 E3.17709
G1 X104.857 Y105.851 E3.1968
G1 X105.008 Y105.443 E3.20766
G1 X104.802 Y104.839 E3.22358
G1 X104.623 Y104.07 E3.24327
G1 X104.523 Y103.286 E3.26299
G1 X104.5 Y102.691 E3.27784
G1 X104.5 Y94.302 E3.4871
G1 X104.54 Y93.513 E3.50681
G1 X104.659 Y92.733 E3.52649
G1 X104.857 Y91.968 E3.54621
G1 X105.131 Y91.228 E3.56589
G1 X105.479 Y90.519 E3.58559
G1 X105.897 Y89.848 E3.60531
G1 X106.38 Y89.224 E3.625
G0 F3600 X106.775 Y89.379
G1 F1800 X107.067 Y89.069 E3.63562
G1 X107.184 Y88.952 E3.63975
G1 X107.756 Y88.438 E3.65893
G1 X108.378 Y87.985 E3.67812
G1 X109.043 Y87.599 E3.6973
G1 X109.745 Y87.284 E3.7165
G1 X110.476 Y87.044 E3.73569
G1 X111.227 Y86.881 E3.75486
G1 X111.992 Y86.797 E3.77406
G1 X112.417 Y86.785 E3.78466
G1 X137.583 Y86.785 E4.41243
G1 X138.351 Y86.825 E4.43162
G1 X139.111 Y86.944 E4.45081
G1 X139.854 Y87.142 E4.46999
G1 X140.573 Y87.416 E4.48918
G1 X141.259 Y87.763 E4.50836
G1 X141.906 Y88.179 E4.52755
G1 X142.506 Y88.66 E4.54673
G1 X142.816 Y88.952 E4.55735
G1 X142.933 Y89.069 E4.56148
G1 X143.447 Y89.641 E4.58066
G1 X143.9 Y90.263 E4.59986
G1 X144.286 Y90.928 E4.61904
G1 X144.601 Y91.63 E4.63823
G1 X144.841 Y92.361 E4.65742
G1 X145.004 Y93.112 E4.67659
G1 X145.088 Y93.877 E4.69579
G1 X145.1 Y94.302 E4.7064
G1 X145.1 Y102.692 E4.91569
G1 X145.06 Y103.46 E4.93487
G1 X144.941 Y104.22 E4.95406
G1 X144.743 Y104.963 E4.97324
G1 X144.565 Y105.431 E4.98573
G1 X144.601 Y105.512 E4.98794
G1 X144.841 Y106.243 E5.00713
G1 X145.004 Y106.994 E5.0263
G1 X145.088 Y107.759 E5.0455
G1 X145.1 Y108.184 E5.05611
G1 X145.1 Y116.841 E5.27206
G1 X145.06 Y117.609 E5.29124
G1 X144.941 Y118.369 E5.31043
G1 X144.743 Y119.112 E5.32961
G1 X144.469 Y119.831 E5.34881
G1 X144.122 Y120.517 E5.36798
G1 X143.706 Y121.164 E5.38717
G1 X143.225 Y121.764 E5.40635
G1 X142.933 Y122.074 E5.41698
G1 X142.816 Y122.191 E5.4211
G1 X142.244 Y122.705 E5.44029
G1 X141.622 Y123.158 E5.45948
G1 X140.957 Y123.544 E5.47866
G1 X140.255 Y123.859 E5.49786
G1 X139.524 Y124.099 E5.51705
G1 X138.773 Y124.262 E5.53622
G1 X138.008 Y124.346 E5.55542
G1 X137.582 Y124.358 E5.56605
G1 X127.656 Y124.357 E5.81365
G1 X126.888 Y124.317 E5.83284
G1 X126.735 Y124.293 E5.8367
G1 X126.261 Y124.345 E5.84859
G1 X125.84 Y124.357 E5.8591
G1 X124.168 Y124.358 E5.90081
G1 X123.4 Y124.318 E5.91999
G1 X123.241 Y124.293 E5.92401
G1 X122.768 Y124.345 E5.93588
G1 X122.344 Y124.357 E5.94646
G1 X112.418 Y124.358 E6.19406
G1 X111.65 Y124.318 E6.21325
G1 X110.89 Y124.199 E6.23244
G1 X110.146 Y124.001 E6.25164
G1 X109.428 Y123.727 E6.27081
G1 X108.741 Y123.38 E6.29001
G1 X108.094 Y122.964 E6.3092
G1 X107.494 Y122.483 E6.32838
G1 X107.184 Y122.191 E6.339
G1 X107.067 Y122.074 E6.34313
G1 X106.553 Y121.502 E6.36232
G1 X106.1 Y120.88 E6.38151
G1 X105.714 Y120.215 E6.40069
G1 X105.399 Y119.513 E6.41988
G1 X105.159 Y118.782 E6.43908
G1 X104.996 Y118.031 E6.45825
G1 X104.912 Y117.266 E6.47744
G1 X104.9 Y116.841 E6.48805
G1 X104.9 Y108.185 E6.70397
G1 X104.94 Y107.417 E6.72316
G1 X105.059 Y106.657 E6.74235
G1 X105.257 Y105.914 E6.76153
G1 X105.436 Y105.445 E6.77405
G1 X105.399 Y105.363 E6.7763
G1 X105.159 Y104.632 E6.79549
G1 X104.996 Y103.881 E6.81466
G1 X104.912 Y103.116 E6.83386
G1 X104.9 Y102.691 E6.84446
G1 X104.9 Y94.302 E7.05373
G1 X104.94 Y93.534 E7.07291
G1 X105.059 Y92.774 E7.0921
G1 X105.257 Y92.031 E7.11128
G1 X105.531 Y91.312 E7.13047
G1 X105.878 Y90.626 E7.14965
G1 X106.294 Y89.979 E7.16884
G1 X106.775 Y89.379 E7.18802
G0 F3600 X106.692 Y90.113
G1 F1800 X107.35 Y89.352 E7.21312
G1 X107.467 Y89.235 E7.21724
G1 X108.024 Y88.735 E7.23592
G1 X108.63 Y88.298 E7.25455
G1 X109.28 Y87.927 E7.27322
G1 X109.966 Y87.628 E7.29189
G1 X110.68 Y87.404 E7.31056
G1 X111.413 Y87.257 E7.3292
G1 X112.417 Y87.185 E7.35431
G1 X137.583 Y87.185 E7.98208
G1 X138.33 Y87.225 E8.00074
G1 X139.068 Y87.344 E8.01939
G1 X139.79 Y87.542 E8.03807
G1 X140.486 Y87.815 E8.05672
G1 X141.149 Y88.162 E8.07538
G1 X141.772 Y88.577 E8.09406
G1 X142.533 Y89.235 E8.11915
G1 X142.65 Y89.352 E8.12328
G1 X143.15 Y89.909 E8.14195
G1 X143.587 Y90.515 E8.16059
G1 X143.958 Y91.165 E8.17926
G1 X144.257 Y91.851 E8.19792
G1 X144.481 Y92.565 E8.21659
G1 X144.628 Y93.298 E8.23524
G1 X144.7 Y94.302 E8.26035
G1 X144.7 Y102.692 E8.46964
G1 X144.66 Y103.439 E8.4883
G1 X144.541 Y104.177 E8.50695
G1 X144.343 Y104.899 E8.52562
G1 X144.13 Y105.442 E8.54017
G1 X144.257 Y105.733 E8.54809
G1 X144.481 Y106.447 E8.56676
G1 X144.628 Y107.18 E8.58541
G1 X144.7 Y108.184 E8.61052
G1 X144.7 Y116.841 E8.82647
G1 X144.66 Y117.588 E8.84513
G1 X144.541 Y118.326 E8.86377
G1 X144.343 Y119.048 E8.88245
G1 X144.07 Y119.744 E8.9011
G1 X143.723 Y120.407 E8.91977
G1 X143.308 Y121.03 E8.93844
G1 X142.65 Y121.791 E8.96353
G1 X142.533 Y121.908 E8.96766
G1 X141.976 Y122.408 E8.98633
G1 X141.37 Y122.845 E9.00497
G1 X140.72 Y123.216 E9.02364
G1 X140.034 Y123.515 E9.04231
G1 X139.32 Y123.739 E9.06097
G1 X138.587 Y123.886 E9.07962
G1 X137.582 Y123.958 E9.10476
G1 X127.656 Y123.957 E9.35236
G1 X126.909 Y123.917 E9.37102
G1 X126.751 Y123.891 E9.37502
G1 X125.84 Y123.957 E9.3978
G1 X124.168 Y123.958 E9.43951
G1 X123.421 Y123.918 E9.45817
G1 X123.257 Y123.891 E9.46232
G1 X122.344 Y123.957 E9.48515
G1 X112.418 Y123.958 E9.73276
G1 X111.671 Y123.918 E9.75142
G1 X110.932 Y123.799 E9.77009
G1 X110.211 Y123.601 E9.78874
G1 X109.514 Y123.328 E9.80741
G1 X108.851 Y122.982 E9.82607
G1 X108.229 Y122.567 E9.84472
G1 X107.467 Y121.908 E9.86985
G1 X107.35 Y121.791 E9.87398
G1 X106.85 Y121.234 E9.89265
G1 X106.413 Y120.628 E9.91129
G1 X106.042 Y119.978 E9.92996
G1 X105.743 Y119.292 E9.94862
G1 X105.519 Y118.578 E9.96729
G1 X105.372 Y117.845 E9.98594
G1 X105.3 Y116.841 E10.01105
G1 X105.3 Y108.185 E10.22697
G1 X105.34 Y107.438 E10.24563
G1 X105.459 Y106.7 E10.26428
G1 X105.657 Y105.978 E10.28296
G1 X105.87 Y105.434 E10.29753
G1 X105.743 Y105.142 E10.30547
G1 X105.519 Y104.428 E10.32414
G1 X105.372 Y103.695 E10.34279
G1 X105.3 Y102.691 E10.3679
G1 X105.3 Y94.302 E10.57716
G1 X105.34 Y93.555 E10.59582
G1 X105.459 Y92.817 E10.61447
G1 X105.657 Y92.095 E10.63314
G1 X105.93 Y91.399 E10.65179
G1 X106.277 Y90.736 E10.67046
G1 X106.692 Y90.113 E10.68913
G0 F3600 X107.089 Y90.252
G1 F1800 X107.633 Y89.635 E10.70965
G1 X107.75 Y89.518 E10.71378
G1 X108.291 Y89.034 E10.73189
G1 X108.882 Y88.611 E10.75002
G1 X109.516 Y88.257 E10.76813
G1 X110.185 Y87.974 E10.78625
G1 X110.881 Y87.766 E10.80437
G1 X111.596 Y87.636 E10.8225
G1 X112.417 Y87.585 E10.84302
G1 X137.583 Y87.585 E11.47079
G1 X138.308 Y87.625 E11.4889
G1 X139.025 Y87.744 E11.50703
G1 X139.724 Y87.942 E11.52515
G1 X140.397 Y88.215 E11.54327
G1 X141.036 Y88.56 E11.56139
G1 X141.633 Y88.974 E11.57951
G1 X142.25 Y89.518 E11.60003
G1 X142.367 Y89.635 E11.60415
G1 X142.851 Y90.176 E11.62226
G1 X143.274 Y90.767 E11.64039
G1 X143.628 Y91.401 E11.65851
G1 X143.911 Y92.07 E11.67663
G1 X144.119 Y92.766 E11.69475
G1 X144.249 Y93.481 E11.71287
G1 X144.3 Y94.302 E11.73339
G1 X144.3 Y102.692 E11.94268
G1 X144.26 Y103.417 E11.9608
G1 X144.141 Y104.134 E11.97893
G1 X143.943 Y104.833 E11.99705
G1 X143.696 Y105.443 E12.01347
G1 X143.911 Y105.952 E12.02725
G1 X144.119 Y106.648 E12.04537
G1 X144.249 Y107.363 E12.0635
G1 X144.3 Y108.184 E12.08402
G1 X144.3 Y116.841 E12.29997
G1 X144.26 Y117.566 E12.31808
G1 X144.141 Y118.283 E12.33621
G1 X143.943 Y118.982 E12.35433
G1 X143.67 Y119.655 E12.37245
G1 X143.325 Y120.294 E12.39056
G1 X142.911 Y120.891 E12.40869
G1 X142.367 Y121.508 E12.42921
G1 X142.25 Y121.625 E12.43333
G1 X141.709 Y122.109 E12.45144
G1 X141.118 Y122.532 E12.46957
G1 X140.484 Y122.886 E12.48768
G1 X139.815 Y123.169 E12.5058
G1 X139.119 Y123.377 E12.52392
G1 X138.404 Y123.507 E12.54205
G1 X137.582 Y123.558 E12.5626
G1 X127.656 Y123.557 E12.8102
G1 X126.931 Y123.517 E12.82831
G1 X126.757 Y123.488 E12.83272
G1 X126.657 Y123.506 E12.83525
G1 X125.84 Y123.557 E12.85567
G1 X124.168 Y123.558 E12.89738
G1 X123.443 Y123.518 E12.91549
G1 X123.263 Y123.488 E12.92004
G1 X123.164 Y123.506 E12.92255
G1 X122.344 Y123.557 E12.94305
G1 X112.418 Y123.558 E13.19065
G1 X111.692 Y123.518 E13.20879
G1 X110.976 Y123.399 E13.2269
G1 X110.277 Y123.201 E13.24502
G1 X109.604 Y122.928 E13.26313
G1 X108.965 Y122.583 E13.28125
G1 X108.368 Y122.17 E13.29936
G1 X107.75 Y121.625 E13.31991
G1 X107.633 Y121.508 E13.32404
G1 X107.149 Y120.967 E13.34215
G1 X106.726 Y120.376 E13.36028
G1 X106.372 Y119.742 E13.37839
G1 X106.089 Y119.073 E13.39651
G1 X105.881 Y118.377 E13.41463
G1 X105.751 Y117.662 E13.43276
G1 X105.7 Y116.841 E13.45328
G1 X105.7 Y108.185 E13.6692
G1 X105.74 Y107.46 E13.68732
G1 X105.859 Y106.743 E13.70545
G1 X106.057 Y106.044 E13.72357
G1 X106.305 Y105.433 E13.74002
G1 X106.089 Y104.923 E13.75383
G1 X105.881 Y104.227 E13.77195
G1 X105.751 Y103.512 E13.79008
G1 X105.7 Y102.691 E13.8106
G1 X105.7 Y94.302 E14.01987
G1 X105.74 Y93.577 E14.03798
G1 X105.859 Y92.86 E14.05611
G1 X106.057 Y92.161 E14.07423
G1 X106.33 Y91.488 E14.09235
G1 X106.675 Y90.849 E14.11046
G1 X107.089 Y90.252 E14.12859
G0 F3600 X107.485 Y90.396
G1 F1800 X107.916 Y89.918 E14.14464
G1 X108.033 Y89.801 E14.14877
G1 X108.558 Y89.332 E14.16633
G1 X109.133 Y88.926 E14.18389
G1 X109.751 Y88.588 E14.20146
G1 X110.402 Y88.321 E14.21901
G1 X111.08 Y88.131 E14.23658
G1 X111.775 Y88.018 E14.25414
G1 X112.417 Y87.985 E14.27018
G1 X137.583 Y87.985 E14.89795
G1 X138.286 Y88.025 E14.91551
G1 X138.98 Y88.144 E14.93307
G1 X139.655 Y88.342 E14.95062
G1 X140.304 Y88.614 E14.96818
G1 X140.918 Y88.959 E14.98574
G1 X141.489 Y89.37 E15.00329
G1 X141.967 Y89.801 E15.01935
G1 X142.084 Y89.918 E15.02348
G1 X142.553 Y90.443 E15.04104
G1 X142.959 Y91.018 E15.0586
G1 X143.297 Y91.636 E15.07617
G1 X143.564 Y92.287 E15.09372
G1 X143.754 Y92.965 E15.11128
G1 X143.867 Y93.66 E15.12885
G1 X143.9 Y94.302 E15.14488
G1 X143.9 Y102.692 E15.35417
G1 X143.86 Y103.395 E15.37174
G1 X143.741 Y104.089 E15.3893
G1 X143.543 Y104.764 E15.40685
G1 X143.271 Y105.413 E15.4244
G1 X143.255 Y105.441 E15.42521
G1 X143.297 Y105.518 E15.4274
G1 X143.564 Y106.169 E15.44495
G1 X143.754 Y106.847 E15.46251
G1 X143.867 Y107.542 E15.48008
G1 X143.9 Y108.184 E15.49611
G1 X143.9 Y116.841 E15.71206
G1 X143.86 Y117.544 E15.72963
G1 X143.741 Y118.238 E15.74719
G1 X143.543 Y118.913 E15.76474
G1 X143.271 Y119.562 E15.78229
G1 X142.926 Y120.176 E15.79986
G1 X142.515 Y120.747 E15.81741
G1 X142.084 Y121.225 E15.83347
G1 X141.967 Y121.342 E15.83759
G1 X141.442 Y121.811 E15.85515
G1 X140.867 Y122.217 E15.87271
G1 X140.249 Y122.555 E15.89028
G1 X139.598 Y122.822 E15.90784
G1 X138.92 Y123.012 E15.9254
G1 X138.225 Y123.125 E15.94297
G1 X137.582 Y123.158 E15.95903
G1 X127.656 Y123.157 E16.20663
G1 X126.954 Y123.117 E16.22417
G1 X126.743 Y123.081 E16.22951
G1 X126.478 Y123.124 E16.23621
G1 X125.84 Y123.157 E16.25214
G1 X124.168 Y123.158 E16.29385
G1 X123.465 Y123.118 E16.31142
G1 X123.249 Y123.081 E16.31688
G1 X122.985 Y123.124 E16.32356
G1 X122.344 Y123.157 E16.33957
G1 X112.418 Y123.158 E16.58717
G1 X111.715 Y123.118 E16.60474
G1 X111.021 Y122.999 E16.6223
G1 X110.345 Y122.802 E16.63987
G1 X109.696 Y122.529 E16.65743
G1 X109.082 Y122.185 E16.67499
G1 X108.511 Y121.773 E16.69255
G1 X108.033 Y121.342 E16.7086
G1 X107.916 Y121.225 E16.71273
G1 X107.447 Y120.7 E16.73029
G1 X107.041 Y120.125 E16.74785
G1 X106.703 Y119.507 E16.76542
G1 X106.436 Y118.856 E16.78297
G1 X106.246 Y118.178 E16.80054
G1 X106.133 Y117.483 E16.8181
G1 X106.1 Y116.841 E16.83414
G1 X106.1 Y108.185 E17.05006
G1 X106.14 Y107.482 E17.06763
G1 X106.259 Y106.788 E17.08519
G1 X106.457 Y106.113 E17.10274
G1 X106.729 Y105.464 E17.12029
G1 X106.745 Y105.435 E17.12112
G1 X106.703 Y105.357 E17.12333
G1 X106.436 Y104.706 E17.14088
G1 X106.246 Y104.028 E17.15845
G1 X106.133 Y103.333 E17.17601
G1 X106.1 Y102.691 E17.19205
G1 X106.1 Y94.302 E17.40131
G1 X106.14 Y93.599 E17.41888
G1 X106.259 Y92.905 E17.43644
G1 X106.457 Y92.23 E17.45399
G1 X106.729 Y91.581 E17.47154
G1 X107.074 Y90.967 E17.48911
G1 X107.485 Y90.396 E17.50666
G0 F3600 X107.882 Y90.544
G1 F1800 X108.199 Y90.201 E17.51831
G1 X108.316 Y90.084 E17.52244
G1 X108.825 Y89.631 E17.53944
G1 X109.383 Y89.242 E17.5564
G1 X109.983 Y88.92 E17.57339
G1 X110.617 Y88.671 E17.59038
G1 X111.276 Y88.498 E17.60738
G1 X111.95 Y88.404 E17.62435
G1 X112.417 Y88.385 E17.63601
G1 X137.583 Y88.385 E18.26378
G1 X138.263 Y88.425 E18.28077
G1 X138.933 Y88.544 E18.29775
G1 X139.585 Y88.741 E18.31474
G1 X140.209 Y89.013 E18.33172
G1 X140.797 Y89.357 E18.34871
G1 X141.341 Y89.767 E18.3657
G1 X141.684 Y90.084 E18.37735
G1 X141.801 Y90.201 E18.38148
G1 X142.254 Y90.71 E18.39848
G1 X142.643 Y91.268 E18.41545
G1 X142.965 Y91.868 E18.43243
G1 X143.214 Y92.502 E18.44942
G1 X143.387 Y93.161 E18.46642
G1 X143.481 Y93.835 E18.4834
G1 X143.5 Y94.302 E18.49506
G1 X143.5 Y102.692 E18.70434
G1 X143.46 Y103.372 E18.72134
G1 X143.341 Y104.042 E18.73831
G1 X143.144 Y104.694 E18.7553
G1 X142.872 Y105.318 E18.77228
